X: 5099
T: Bridge Of Athlone, The
R: hornpipe
M: 4/4
K: Gmajor
(3DEF|:G2G2 D>GB>G|A>^GA>B c>BA>=G|F>GA>B A>GF>E|(3DFA d>e d>cB>A|
G>B D>C (3B,DG B>G|c>eA>G (3FGA (3cBA|(3GBA (3GFE D2 E>F|1 G2F2 G2(3DEF:|2 G2F2 G2F>G|
|:A>df>e (3d^ce d>c|B>dg>f e>^de>=d|(3^cBA (3BAG (3fed (3BAF|(3DFA d>e d>cB>A|
G>BD>C (3B,DG (3BAG|c>eA>G (3FGA (3cBA|(3GBA (3GFE D2 E>F|1 G2F2 G2F>G:|2 G2F2 G2(3DEF||

